X:2765
T:John Peel
A:North-West
M:C|
O:England
R:Reel
Z:Richard Robinson 
%%TUNEURL: http://www.leeds.ac.uk/music/Info/RRTuneBk/gettune/00000518.html
%%ID:00000518
K:G
BA |\
G2G2 g2ge | dedc B2cB | A2A2 e2AB | cBcA FDEF|
G2G2 g2ge | dedc B2AB | cBAG FGAB | d2G2 G2::
Bc|\
d2dc B2Bc | d2dc B2AB | c2cB A2AB | c2cB AcBA|
G2G2 g2ge | dedc B2AB | cBAG FGAB | d2G2 G2:|
